; HEADER_BLOCK_START
; generated by OrcaSlicer 2.0.0 on 2024-04-16 at 16:31:26
; total layer number: 150
; filament_density: 1.24,1.24
; filament_diameter: 1.75,1.75
; max_z_height: 30.10
; HEADER_BLOCK_END

; THUMBNAIL_BLOCK_START

;
; THUMBNAIL_BLOCK_END

; external perimeters extrusion width = 0.40mm
; perimeters extrusion width = 0.40mm
; infill extrusion width = 0.40mm
; solid infill extrusion width = 0.40mm
; top infill extrusion width = 0.40mm
; first layer extrusion width = 0.40mm

; external perimeters extrusion width = 0.40mm
; perimeters extrusion width = 0.40mm
; infill extrusion width = 0.40mm
; solid infill extrusion width = 0.40mm
; top infill extrusion width = 0.40mm
; first layer extrusion width = 0.40mm

; EXECUTABLE_BLOCK_START
EXCLUDE_OBJECT_DEFINE NAME=Cylinder_id_0_copy_0 CENTER=145,145 POLYGON=[[130,145],[130.002,144.738],[130.009,144.477],[130.021,144.215],[130.037,143.954],[130.057,143.693],[130.082,143.432],[130.112,143.172],[130.146,142.912],[130.185,142.653],[130.228,142.395],[130.276,142.138],[130.328,141.881],[130.384,141.626],[130.446,141.371],[130.511,141.118],[130.581,140.865],[130.655,140.614],[130.734,140.365],[130.817,140.116],[130.905,139.87],[130.996,139.624],[131.092,139.381],[131.192,139.139],[131.297,138.899],[131.405,138.661],[131.518,138.424],[131.635,138.19],[131.756,137.958],[131.881,137.728],[132.01,137.5],[132.142,137.274],[132.279,137.051],[132.42,136.83],[132.564,136.612],[132.713,136.396],[132.865,136.183],[133.02,135.973],[133.18,135.765],[133.343,135.56],[133.509,135.358],[133.679,135.159],[133.853,134.963],[134.03,134.77],[134.21,134.58],[134.393,134.393],[134.58,134.21],[134.77,134.03],[134.963,133.853],[135.159,133.679],[135.358,133.509],[135.56,133.343],[135.765,133.18],[135.973,133.02],[136.183,132.865],[136.396,132.713],[136.612,132.564],[136.83,132.42],[137.051,132.279],[137.274,132.142],[137.5,132.01],[137.728,131.881],[137.958,131.756],[138.19,131.635],[138.424,131.518],[138.661,131.405],[138.899,131.297],[139.139,131.192],[139.381,131.092],[139.624,130.996],[139.87,130.905],[140.116,130.817],[140.365,130.734],[140.614,130.655],[140.865,130.581],[141.118,130.511],[141.371,130.446],[141.626,130.384],[141.881,130.328],[142.138,130.276],[142.395,130.228],[142.653,130.185],[142.912,130.146],[143.172,130.112],[143.432,130.082],[143.693,130.057],[143.954,130.037],[144.215,130.021],[144.477,130.009],[144.738,130.002],[145,130],[145.262,130.002],[145.523,130.009],[145.785,130.021],[146.046,130.037],[146.307,130.057],[146.568,130.082],[146.828,130.112],[147.088,130.146],[147.347,130.185],[147.605,130.228],[147.862,130.276],[148.119,130.328],[148.374,130.384],[148.629,130.446],[148.882,130.511],[149.135,130.581],[149.386,130.655],[149.635,130.734],[149.884,130.817],[150.13,130.905],[150.376,130.996],[150.619,131.092],[150.861,131.192],[151.101,131.297],[151.339,131.405],[151.576,131.518],[151.81,131.635],[152.042,131.756],[152.272,131.881],[152.5,132.01],[152.726,132.142],[152.949,132.279],[153.17,132.42],[153.388,132.564],[153.604,132.713],[153.817,132.865],[154.027,133.02],[154.235,133.18],[154.44,133.343],[154.642,133.509],[154.841,133.679],[155.037,133.853],[155.23,134.03],[155.42,134.21],[155.607,134.393],[155.79,134.58],[155.97,134.77],[156.147,134.963],[156.321,135.159],[156.491,135.358],[156.657,135.56],[156.82,135.765],[156.98,135.973],[157.135,136.183],[157.287,136.396],[157.436,136.612],[157.58,136.83],[157.721,137.051],[157.858,137.274],[157.99,137.5],[158.119,137.728],[158.244,137.958],[158.365,138.19],[158.482,138.424],[158.595,138.661],[158.703,138.899],[158.808,139.139],[158.908,139.381],[159.004,139.624],[159.095,139.87],[159.183,140.116],[159.266,140.365],[159.345,140.614],[159.419,140.865],[159.489,141.118],[159.554,141.371],[159.616,141.626],[159.672,141.881],[159.724,142.138],[159.772,142.395],[159.815,142.653],[159.854,142.912],[159.888,143.172],[159.918,143.432],[159.943,143.693],[159.963,143.954],[159.979,144.215],[159.991,144.477],[159.998,144.738],[160,145],[159.998,145.262],[159.991,145.523],[159.979,145.785],[159.963,146.046],[159.943,146.307],[159.918,146.568],[159.888,146.828],[159.854,147.088],[159.815,147.347],[159.772,147.605],[159.724,147.862],[159.672,148.119],[159.616,148.374],[159.554,148.629],[159.489,148.882],[159.419,149.135],[159.345,149.386],[159.266,149.635],[159.183,149.884],[159.095,150.13],[159.004,150.376],[158.908,150.619],[158.808,150.861],[158.703,151.101],[158.595,151.339],[158.482,151.576],[158.365,151.81],[158.244,152.042],[158.119,152.272],[157.99,152.5],[157.858,152.726],[157.721,152.949],[157.58,153.17],[157.436,153.388],[157.287,153.604],[157.135,153.817],[156.98,154.027],[156.82,154.235],[156.657,154.44],[156.491,154.642],[156.321,154.841],[156.147,155.037],[155.97,155.23],[155.79,155.42],[155.607,155.607],[155.42,155.79],[155.23,155.97],[155.037,156.147],[154.841,156.321],[154.642,156.491],[154.44,156.657],[154.235,156.82],[154.027,156.98],[153.817,157.135],[153.604,157.287],[153.388,157.436],[153.17,157.58],[152.949,157.721],[152.726,157.858],[152.5,157.99],[152.272,158.119],[152.042,158.244],[151.81,158.365],[151.576,158.482],[151.339,158.595],[151.101,158.703],[150.861,158.808],[150.619,158.908],[150.376,159.004],[150.13,159.095],[149.884,159.183],[149.635,159.266],[149.386,159.345],[149.135,159.419],[148.882,159.489],[148.629,159.554],[148.374,159.616],[148.119,159.672],[147.862,159.724],[147.605,159.772],[147.347,159.815],[147.088,159.854],[146.828,159.888],[146.568,159.918],[146.307,159.943],[146.046,159.963],[145.785,159.979],[145.524,159.991],[145.262,159.998],[145,160],[144.738,159.998],[144.477,159.991],[144.215,159.979],[143.954,159.963],[143.693,159.943],[143.432,159.918],[143.172,159.888],[142.912,159.854],[142.653,159.815],[142.395,159.772],[142.138,159.724],[141.881,159.672],[141.626,159.616],[141.371,159.554],[141.118,159.489],[140.865,159.419],[140.614,159.345],[140.365,159.266],[140.116,159.183],[139.87,159.095],[139.624,159.004],[139.381,158.908],[139.139,158.808],[138.899,158.703],[138.661,158.595],[138.424,158.482],[138.19,158.365],[137.958,158.244],[137.728,158.119],[137.5,157.99],[137.274,157.858],[137.051,157.721],[136.83,157.58],[136.612,157.436],[136.396,157.287],[136.183,157.135],[135.973,156.98],[135.765,156.82],[135.56,156.657],[135.358,156.491],[135.159,156.321],[134.963,156.147],[134.77,155.97],[134.58,155.79],[134.393,155.607],[134.21,155.42],[134.03,155.23],[133.853,155.037],[133.679,154.841],[133.509,154.642],[133.343,154.44],[133.18,154.235],[133.02,154.027],[132.865,153.817],[132.713,153.604],[132.564,153.388],[132.42,153.17],[132.279,152.949],[132.142,152.726],[132.01,152.5],[131.881,152.272],[131.756,152.042],[131.635,151.81],[131.518,151.576],[131.405,151.339],[131.297,151.101],[131.192,150.861],[131.092,150.619],[130.996,150.376],[130.905,150.13],[130.817,149.884],[130.734,149.635],[130.655,149.386],[130.581,149.135],[130.511,148.882],[130.446,148.629],[130.384,148.374],[130.328,148.119],[130.276,147.862],[130.228,147.605],[130.185,147.347],[130.146,147.088],[130.112,146.828],[130.082,146.568],[130.057,146.307],[130.037,146.046],[130.021,145.785],[130.009,145.523],[130.002,145.262],[130,145]]
M73 P0 R47
;TYPE:Custom
M104 S0 ; Stops sending temp waits separately
print_start TOOL_TEMP=210 TOOL=0 BED=55 CHAMBER=0
G90
G21
M83 ; use relative distances for extrusion
; time to change toolhead
;_FORCE_RESUME_FAN_SPEED
T0
; Filament gcode
SET_PRESSURE_ADVANCE ADVANCE=0.025; Override pressure advance value
G1 Z.3 F30000
M106 S0
;LAYER_CHANGE
;Z:0.3
;HEIGHT:0.3
;BEFORE_LAYER_CHANGE
;0.3
G92 E0

;AFTER_LAYER_CHANGE
;0.3
;_SET_FAN_SPEED_CHANGING_LAYER
SET_VELOCITY_LIMIT ACCEL=2000 ACCEL_TO_DECEL=1000
SET_VELOCITY_LIMIT SQUARE_CORNER_VELOCITY=5
G1 E-.5 F5400
G1 Z.6 F30000
G1 X165.75 Y250.75
G1 Z.6
G1 Z.3
G1 E.5 F1800
;HEIGHT:0.3
;TYPE:Prime tower
;WIDTH:0.75
G1  X214.250 Y250.750  E4.1474 F3000
G1  Y252.700  E0.1668
G1  X165.750  E4.1474
M73 P0 R46
G1  Y250.750  E0.1668
G1  X214.250 
G1  Y252.700 
G1  X212.750 
;--------------------
; CP EMPTY GRID START
; layer #1
G1  Y251.950  E0.0641
G1  X166.500  E3.9550
G1  Y250.750  E0.1026
; CP EMPTY GRID END
;------------------






G1  X165.000 Y250.000  
G1  X185.296  E1.7356
G1  X185.410 Y249.717   E0.0261
G1  X185.541 Y249.441   E0.0261
G1  X185.688 Y249.173   E0.0261
G1  X185.852 Y248.915   E0.0261
G1  X186.031 Y248.668   E0.0261
G1  X186.224 Y248.432   E0.0261
G1  X186.432 Y248.208   E0.0261
G1  X186.653 Y247.997   E0.0261
G1  X186.886 Y247.800   E0.0261
G1  X187.131 Y247.617   E0.0261
G1  X187.387 Y247.450   E0.0261
G1  X187.652 Y247.299   E0.0261
G1  X187.926 Y247.164   E0.0261
G1  X188.208 Y247.046   E0.0261
G1  X188.496 Y246.946   E0.0261
G1  X188.790 Y246.863   E0.0261
G1  X189.089 Y246.798   E0.0261
G1  X189.391 Y246.752   E0.0261
G1  X189.695 Y246.724   E0.0261
G1  X190.000 Y246.715   E0.0261
G1  X190.305 Y246.724   E0.0261
G1  X190.609 Y246.752   E0.0261
G1  X190.911 Y246.798   E0.0261
G1  X191.210 Y246.863   E0.0261
G1  X191.504 Y246.946   E0.0261
G1  X191.792 Y247.046   E0.0261
G1  X192.074 Y247.164   E0.0261
G1  X192.348 Y247.299   E0.0261
G1  X192.613 Y247.450   E0.0261
G1  X192.869 Y247.617   E0.0261
G1  X193.114 Y247.800   E0.0261
G1  X193.347 Y247.997   E0.0261
G1  X193.568 Y248.208   E0.0261
G1  X193.776 Y248.432   E0.0261
G1  X193.969 Y248.668   E0.0261
G1  X194.148 Y248.915   E0.0261
G1  X194.312 Y249.173   E0.0261
G1  X194.459 Y249.441   E0.0261
G1  X194.590 Y249.717   E0.0261
G1  X194.704 Y250.000   E0.0261
G1  X187.245 Y250.309  
G1  X186.125 Y249.189   E0.1354
G1  X186.546 Y248.640  
G1  X188.215 Y250.309   E0.2018
G1  X189.184 
G1  X187.040 Y248.164   E0.2594
G1  X187.605 Y247.760  
G1  X190.154 Y250.309   E0.3082
G1  X191.123 
G1  X188.252 Y247.437   E0.3473
G1  X188.990 Y247.206  
G1  X192.093 Y250.309   E0.3753
G1  X193.063 
G1  X189.851 Y247.097   E0.3884
G1  X190.907 Y247.183  
G1  X194.032 Y250.309   E0.3780
G1  X194.704 Y250.000  
G1  X215.000  E1.7356
G1  Y253.450  E0.2950
G1  X194.704  E1.7356
G1  X194.590 Y253.733   E0.0261
G1  X194.459 Y254.009   E0.0261
G1  X194.312 Y254.277   E0.0261
G1  X194.148 Y254.535   E0.0261
G1  X193.969 Y254.782   E0.0261
G1  X193.776 Y255.018   E0.0261
G1  X193.568 Y255.242   E0.0261
G1  X193.347 Y255.453   E0.0261
G1  X193.114 Y255.650   E0.0261
G1  X192.869 Y255.833   E0.0261
G1  X192.613 Y256.000   E0.0261
G1  X192.348 Y256.151   E0.0261
G1  X192.074 Y256.286   E0.0261
G1  X191.792 Y256.404   E0.0261
G1  X191.504 Y256.504   E0.0261
G1  X191.210 Y256.587   E0.0261
G1  X190.911 Y256.652   E0.0261
G1  X190.609 Y256.698   E0.0261
G1  X190.305 Y256.726   E0.0261
G1  X190.000 Y256.735   E0.0261
G1  X189.695 Y256.726   E0.0261
G1  X189.391 Y256.698   E0.0261
G1  X189.089 Y256.652   E0.0261
G1  X188.790 Y256.587   E0.0261
G1  X188.496 Y256.504   E0.0261
G1  X188.208 Y256.404   E0.0261
G1  X187.926 Y256.286   E0.0261
G1  X187.652 Y256.151   E0.0261
G1  X187.387 Y256.000   E0.0261
G1  X187.131 Y255.833   E0.0261
G1  X186.886 Y255.650   E0.0261
G1  X186.653 Y255.453   E0.0261
G1  X186.432 Y255.242   E0.0261
G1  X186.224 Y255.018   E0.0261
G1  X186.031 Y254.782   E0.0261
G1  X185.852 Y254.535   E0.0261
G1  X185.688 Y254.277   E0.0261
G1  X185.541 Y254.009   E0.0261
G1  X185.410 Y253.733   E0.0261
G1  X185.296 Y253.450   E0.0261
G1  X192.755 Y253.141  
G1  X193.875 Y254.261   E0.1354
G1  X193.454 Y254.810  
G1  X191.785 Y253.141   E0.2018
G1  X190.816 
G1  X192.960 Y255.286   E0.2594
G1  X192.395 Y255.690  
G1  X189.846 Y253.141   E0.3082
G1  X188.877 
G1  X191.748 Y256.013   E0.3473
G1  X191.010 Y256.244  
G1  X187.907 Y253.141   E0.3753
G1  X186.937 
G1  X190.149 Y256.353   E0.3884
G1  X189.093 Y256.267  
G1  X185.968 Y253.141   E0.3780
G1  X185.296 Y253.450  
G1  X165.000  E1.7356
G1  Y250.000  E0.2950
G1  X164.314 Y249.314  
G1  X184.842  E1.7554
G1  X184.930 Y249.128   E0.0176
G1  X185.098 Y248.824   E0.0297
G1  X185.284 Y248.531   E0.0297
G1  X185.487 Y248.249   E0.0297
G1  X185.707 Y247.981   E0.0297
G1  X185.943 Y247.726   E0.0297
G1  X186.195 Y247.486   E0.0297
G1  X186.460 Y247.262   E0.0297
G1  X186.738 Y247.055   E0.0297
G1  X187.029 Y246.865   E0.0297
G1  X187.331 Y246.693   E0.0297
G1  X187.642 Y246.540   E0.0297
G1  X187.963 Y246.406   E0.0297
G1  X188.290 Y246.291   E0.0297
G1  X188.625 Y246.197   E0.0297
G1  X188.964 Y246.124   E0.0297
G1  X189.307 Y246.071   E0.0297
G1  X189.653 Y246.039   E0.0297
G1  X190.000 Y246.029   E0.0297
G1  X190.347 Y246.039   E0.0297
G1  X190.693 Y246.071   E0.0297
G1  X191.036 Y246.124   E0.0297
G1  X191.375 Y246.197   E0.0297
G1  X191.710 Y246.291   E0.0297
G1  X192.037 Y246.406   E0.0297
G1  X192.358 Y246.540   E0.0297
G1  X192.669 Y246.693   E0.0297
G1  X192.971 Y246.865   E0.0297
G1  X193.262 Y247.055   E0.0297
G1  X193.540 Y247.262   E0.0297
G1  X193.805 Y247.486   E0.0297
G1  X194.057 Y247.726   E0.0297
G1  X194.293 Y247.981   E0.0297
G1  X194.513 Y248.249   E0.0297
G1  X194.716 Y248.531   E0.0297
G1  X194.902 Y248.824   E0.0297
G1  X195.070 Y249.128   E0.0297
G1  X195.158 Y249.314   E0.0176
G1  X215.686  E1.7554
G1  Y254.136  E0.4123
G1  X195.158  E1.7554
G1  X195.070 Y254.322   E0.0176
G1  X194.902 Y254.626   E0.0297
G1  X194.716 Y254.919   E0.0297
G1  X194.513 Y255.201   E0.0297
G1  X194.293 Y255.469   E0.0297
G1  X194.057 Y255.724   E0.0297
G1  X193.805 Y255.964   E0.0297
G1  X193.540 Y256.188   E0.0297
G1  X193.262 Y256.395   E0.0297
G1  X192.971 Y256.585   E0.0297
G1  X192.669 Y256.757   E0.0297
G1  X192.358 Y256.910   E0.0297
G1  X192.037 Y257.044   E0.0297
G1  X191.710 Y257.159   E0.0297
G1  X191.375 Y257.253   E0.0297
G1  X191.036 Y257.326   E0.0297
G1  X190.693 Y257.379   E0.0297
G1  X190.347 Y257.411   E0.0297
G1  X190.000 Y257.421   E0.0297
G1  X189.653 Y257.411   E0.0297
G1  X189.307 Y257.379   E0.0297
G1  X188.964 Y257.326   E0.0297
G1  X188.625 Y257.253   E0.0297
G1  X188.290 Y257.159   E0.0297
G1  X187.963 Y257.044   E0.0297
G1  X187.642 Y256.910   E0.0297
G1  X187.331 Y256.757   E0.0297
G1  X187.029 Y256.585   E0.0297
G1  X186.738 Y256.395   E0.0297
G1  X186.460 Y256.188   E0.0297
G1  X186.195 Y255.964   E0.0297
G1  X185.943 Y255.724   E0.0297
G1  X185.707 Y255.469   E0.0297
G1  X185.487 Y255.201   E0.0297
G1  X185.284 Y254.919   E0.0297
G1  X185.098 Y254.626   E0.0297
G1  X184.930 Y254.322   E0.0297
G1  X184.842 Y254.136   E0.0176
G1  X164.314  E1.7554
G1  Y249.314  E0.4123
G1  X163.629 Y248.629  
G1  X184.423  E1.7782
G1  X184.508 Y248.475   E0.0151
G1  X184.716 Y248.146   E0.0333
G1  X184.944 Y247.831   E0.0333
G1  X185.190 Y247.530   E0.0333
G1  X185.455 Y247.245   E0.0333
G1  X185.736 Y246.976   E0.0333
G1  X186.034 Y246.725   E0.0333
G1  X186.346 Y246.493   E0.0333
G1  X186.671 Y246.280   E0.0333
G1  X187.009 Y246.087   E0.0333
G1  X187.358 Y245.915   E0.0333
G1  X187.717 Y245.765   E0.0333
G1  X188.085 Y245.637   E0.0333
G1  X188.459 Y245.532   E0.0333
G1  X188.839 Y245.449   E0.0333
G1  X189.224 Y245.390   E0.0333
G1  X189.611 Y245.355   E0.0333
G1  X190.000 Y245.343   E0.0333
G1  X190.389 Y245.355   E0.0333
G1  X190.776 Y245.390   E0.0333
G1  X191.161 Y245.449   E0.0333
G1  X191.541 Y245.532   E0.0333
G1  X191.915 Y245.637   E0.0333
G1  X192.283 Y245.765   E0.0333
G1  X192.642 Y245.915   E0.0333
G1  X192.991 Y246.087   E0.0333
G1  X193.329 Y246.280   E0.0333
G1  X193.654 Y246.493   E0.0333
G1  X193.966 Y246.725   E0.0333
G1  X194.264 Y246.976   E0.0333
G1  X194.545 Y247.245   E0.0333
G1  X194.810 Y247.530   E0.0333
G1  X195.056 Y247.831   E0.0333
G1  X195.284 Y248.146   E0.0333
G1  X195.492 Y248.475   E0.0333
G1  X195.577 Y248.629   E0.0151
G1  X216.371  E1.7782
G1  Y254.821  E0.5295
G1  X195.577  E1.7782
G1  X195.492 Y254.975   E0.0151
G1  X195.284 Y255.304   E0.0333
G1  X195.056 Y255.619   E0.0333
G1  X194.810 Y255.920   E0.0333
G1  X194.545 Y256.205   E0.0333
G1  X194.264 Y256.474   E0.0333
G1  X193.966 Y256.725   E0.0333
G1  X193.654 Y256.957   E0.0333
G1  X193.329 Y257.170   E0.0333
G1  X192.991 Y257.363   E0.0333
G1  X192.642 Y257.535   E0.0333
G1  X192.283 Y257.685   E0.0333
